X: 1
T: Key Of The Convent, The
M: 6/8
L: 1/8
R: jig
K: Dmaj
|: AFF dFF | AGB AFD | AFF dAF | DFA B3|
AFF dFF | AGB AFE | F3 AFE | DFA B3 :|
ABc d2 A | dfa agf | gfe fdB | AFA  B3|
ABc dcd | dfa gfe | fge fdB | AFA B3|
ABc d2 A | dfa agf | gfe fdB | AFA  B3|
ABc dcd | dfa gfe | fge fdB | AFA B2 A|
|:Bbb Baa | fge fdA | Bbb Baa | AFA B2 A|
Bbb Baa | fge fdB | AFd AFE | DFA B3 :|
